!!!COM: Bach, Johann Sebastian
!!!CDT: 1685/3//-1750/7/28/
!!!OTL@@DE: Jesu, meiner Seelen Wonne
!!!AGN: 4-Part Chorale
!!!SCT: Erk 350
!!!SCT: BWV 360
!!!YEC: Copyright 1994, David Huron
!!!YEC: Changes/Additions 2001 by Craig Stuart Sapp
!!!YEN: United States of America
!!!SMA: 371 Bach Chorales, edited by Ludwig Erk, C.F. Peters
!!!PDT: 1850, 1865
!!!ONB: Harmony and Root analysis done manually
**kern	**kern	**kern	**kern	**root	**harm	**kern
!bass	!tenor	!alto	!soprno	!	!	!
*Iorgan	*Iorgan	*Iorgan	*Iorgan	*Iorgan	*	*Iorgan
*M4/4	*M4/4	*M4/4	*M4/4	*M4/4	*M4/4	*M4/4
*met(C)	*met(C)	*met(C)	*met(C)	*met(C)	*met(C)	*met(C)
*MM60	*MM60	*MM60	*MM60	*MM60	*MM60	*MM60
*k[b-e-]	*k[b-e-]	*k[b-e-]	*k[b-e-]	*k[b-e-]	*k[b-e-]	*k[b-e-]
*B-:	*B-:	*B-:	*B-:	*B-:	*B-:	*B-:
*>[A,A,B]	*>[A,A,B]	*>[A,A,B]	*>[A,A,B]	*>[A,A,B]	*>[A,A,B]	*>[A,A,B]
*>A	*>A	*>A	*>A	*>A	*>A	*>A
=1-	=1-	=1-	=1-	=1-	=1-	=1-
4B-	4f	4b-	4dd	4BB-	I	4B- 4dd 4ff
4G	8B-	4b-	4ee-	4EE-	IVb	4e- 4G 4b-
.	8c	.	.	.	.	.
4D	4d	4a	4ff	4DD	iii	4D 4f 4a
4G	4d	8b-	4ff	4GG	vi7	4G 4b- 4dd 4ff
.	.	8a	.	.	.	.
=2	=2	=2	=2	=2	=2	=2
4C	4e-	8g	4ee-	4CC	ii	4C 4e- 4g
.	.	8a	.	.	.	.
4BB-	4f	4b-	4dd	4BB-	I	4B- 4dd 4ff
4F	4f	4a	4cc	4FF	V	4F 4a 4cc
4F;	4f;	4a;	4cc;	4FF;	V;	4F; 4a; 4cc;
=3	=3	=3	=3	=3	=3	=3
4BB-	4f	4b-	4dd	4BB-	I	4B- 4dd 4ff
4C	4e-	8a	4ee-	4CC	ii	4C 4e- 4g
.	.	8g	.	.	.	.
4D	8d	4f	4ff	4DD	iii	4D 4f 4a
.	8c	.	.	.	.	.
8G	4B-	4g	4dd	4GG	vi	4G 4b- 4dd
8F	.	.	.	.	.	.
=4	=4	=4	=4	=4	=4	=4
4E-	4B-	4g	4.cc	4CC	ii7b	4c 4E- 4g 4b-
4F	4A	4f	.	4FF	V	4F 4a 4cc
.	.	.	8cc	.	.	.
2BB-;	2d;	2f;	2b-;	2BB-;	I;	2B-; 2dd; 2ff;
=:|!	=:|!	=:|!	=:|!	=:|!	=:|!	=:|!
*>B	*>B	*>B	*>B	*>B	*>B	*>B
=5	=5	=5	=5	=5	=5	=5
4F	4f	4a	4cc	4FF	V	4F 4a 4cc
4D	4F	4bn	4dd	4BB	viiob/ii	4b 4D 4ff
8C	4G	4cc	4ee-	4CC	ii	4C 4e- 4g
8D	.	.	.	.	.	.
8E-	4c	4g	4ee-	4CC	iib	4c 4E- 4g
8F	.	.	.	.	.	.
=6	=6	=6	=6	=6	=6	=6
4G	8c	4g	4.dd	4GG	V/ii	4G 4b 4dd
.	8A	.	.	.	.	.
4GG	4Bn	8f	.	4GG	V7/ii	4G 4b 4dd 4ff
.	.	8e-	8cc	.	.	.
2C;	2G;	2e-;	2cc;	2CC;	ii;	2C; 2e-; 2g;
=7	=7	=7	=7	=7	=7	=7
4c	4c	4g	4ee-	4CC	ii	4C 4e- 4g
8B-	4d	4b-	4ff	4BB-	V7/IV	4B- 4dd 4ff 4aa-
8A-	.	.	.	.	.	.
8G	4e-	4b-	4gg	4EE-	IVb	4e- 4G 4b-
8F	.	.	.	.	.	.
4E-	4e-	4b-	4gg	4EE-	IV	4E- 4g 4b-
=8	=8	=8	=8	=8	=8	=8
4B-	8e-	4b-	4ff	4BB-	V/IV	4B- 4dd 4ff
.	8c	.	.	.	.	.
4BB-	4d	8b-	8.ff	4BB-	V7/IV	4B- 4dd 4ff 4aa-
.	.	8a-	.	.	.	.
.	.	.	16ee-	.	.	.
2E-;	2B-;	2g;	2ee-;	2EE-;	IV;	2E-; 2g; 2b-;
=9	=9	=9	=9	=9	=9	=9
4G	4B-	4g	4dd	4GG	vi	4G 4b- 4dd
8F	4B-	4g	4ee-	4EE-	IV	4E- 4g 4b-
8E-	.	.	.	.	.	.
4D	8B-	4f	4ff	4BB-	Vb/IV	4b- 4D 4ff
.	8A-	.	.	.	.	.
4E-	4G	4e-	4b-	4EE-	IV	4E- 4g 4b-
=10	=10	=10	=10	=10	=10	=10
4AAn	4c	4f	4ee-	4FF	V7b	4f 4A 4cc 4ee-
4BB-	4B-	4f	4dd	4BB-	I	4B- 4dd 4ff
4F	4An	4f	4cc	4FF	V	4F 4a 4cc
4F;	4A;	4f;	4cc;	4FF;	V;	4F; 4a; 4cc;
=11	=11	=11	=11	=11	=11	=11
4B-	4B-	4f	4dd	4BB-	I	4B- 4dd 4ff
8A	4B-	4g	4ee-	4EE-	IVb	4e- 4G 4b-
8G	.	.	.	.	.	.
8A	4c	4f	4ff	4FF	V	4F 4a 4cc
8F	.	.	.	.	.	.
4B-	4B-	4f	4dd	4BB-	I	4B- 4dd 4ff
=12	=12	=12	=12	=12	=12	=12
4E-	4B-	4g	4cc	4CC	ii7b	4c 4E- 4g 4b-
4F	4A	4f	4cc	4FF	V	4F 4a 4cc
4BB-	4d	4f	4b-	4BB-	I	4B- 4dd 4ff
4BB-;	4d;	4f;	4b-;	4BB-;	I;	4B-; 4dd; 4ff;
==	==	==	==	==	==	==
*-	*-	*-	*-	*-	*-	*-
